src/assets/icons/Techuser-Grey.svg

<svg width="24" height="24" viewBox="0 0 24 24" fill="none" xmlns="http://www.w3.org/2000/svg">
<g id="Techuser-Grey">
<g id="Group">
<path id="Vector" d="M15 12C17.21 12 19 10.21 19 8C19 5.79 17.21 4 15 4C12.79 4 11 5.79 11 8C11 10.21 12.79 12 15 12ZM15 14C12.33 14 7 15.34 7 18V20H23V18C23 15.34 17.67 14 15 14Z" fill="#BABABA"/>
<path id="Vector_2" d="M8.72249 5.35495L8.09839 4.82864C7.90623 4.66639 7.62289 4.6743 7.44064 4.84644L7.0959 5.16896C6.80468 5.02848 6.4956 4.92955 6.1766 4.87217L6.07956 4.39729C6.03003 4.15194 5.80218 3.98178 5.5525 4.00156L4.73821 4.07081C4.48857 4.09258 4.29243 4.29638 4.2845 4.54767L4.26867 5.03046C3.95561 5.14324 3.66041 5.29757 3.39096 5.49148L2.97888 5.21843C2.76882 5.07992 2.48949 5.1195 2.32704 5.31142L1.80003 5.93865C1.63755 6.13058 1.64547 6.41353 1.81782 6.59556L2.17843 6.9794C2.05359 7.26037 1.96443 7.55521 1.91294 7.85792L1.39782 7.96279C1.15214 8.01225 0.981752 8.2398 1.00156 8.48913L1.07091 9.30235C1.0927 9.55166 1.29677 9.74755 1.54839 9.75546L2.10512 9.77325C2.20621 10.0384 2.33893 10.2897 2.49939 10.5251L2.18836 10.9941C2.04967 11.2038 2.08929 11.4828 2.28145 11.645L2.90555 12.1714C3.09775 12.3336 3.38105 12.3257 3.56335 12.1536L3.97148 11.7717C4.23895 11.8963 4.52027 11.9893 4.80953 12.0447L4.92248 12.6027C4.97202 12.8481 5.19986 13.0182 5.4495 12.9984L6.26379 12.9292C6.51343 12.9074 6.70958 12.7036 6.7175 12.4523L6.73533 11.9062C7.03252 11.8013 7.31384 11.6589 7.57338 11.4828L8.02315 11.7796C8.23316 11.9181 8.5125 11.8785 8.67498 11.6866L9.20199 11.0633C9.36444 10.8714 9.35651 10.5884 9.18416 10.4064L8.82157 10.0226C8.95434 9.74161 9.05144 9.44481 9.10687 9.14008L9.60219 9.03917C9.84786 8.9897 10.0182 8.76216 9.99844 8.51283L9.92909 7.69961C9.9073 7.4503 9.70323 7.25441 9.45161 7.2465L8.95432 7.23067C8.85127 6.94179 8.71258 6.66875 8.54023 6.41547L8.81165 6.00787C8.95432 5.79817 8.91469 5.5172 8.72249 5.35495ZM5.65357 10.0562C4.77389 10.1314 3.9972 9.47645 3.92391 8.59795C3.84861 7.71943 4.50444 6.94379 5.38408 6.87058C6.26375 6.79539 7.04044 7.45034 7.11373 8.32884C7.18904 9.20737 6.5332 9.983 5.65357 10.0562Z" fill="#BABABA"/>
</g>
</g>
</svg>

<?xml version="1.0" encoding="utf-8"?>
<!-- Generator: Adobe Illustrator 21.0.0, SVG Export Plug-In . SVG Version: 6.00 Build 0)  -->
<svg version="1.1" id="Layer_1" xmlns="http://www.w3.org/2000/svg" xmlns:xlink="http://www.w3.org/1999/xlink" x="0px" y="0px"
	 viewBox="0 0 24 24" style="enable-background:new 0 0 24 24;" xml:space="preserve">
<style type="text/css">
	.st0{fill:#BABABA;}
</style>
<path class="st0" d="M15,12c2.2,0,4-1.8,4-4s-1.8-4-4-4s-4,1.8-4,4S12.8,12,15,12z M15,14c-2.7,0-8,1.3-8,4v2h16v-2
	C23,15.3,17.7,14,15,14z"/>
<path class="st0" d="M8.7,5.4L8.1,4.8c-0.2-0.2-0.5-0.2-0.7,0L7.1,5.2C6.8,5,6.5,4.9,6.2,4.9L6.1,4.4C6,4.2,5.8,4,5.6,4L4.7,4.1
	c-0.2,0-0.4,0.2-0.5,0.5l0,0.5C4,5.1,3.7,5.3,3.4,5.5L3,5.2C2.8,5.1,2.5,5.1,2.3,5.3L1.8,5.9c-0.2,0.2-0.2,0.5,0,0.7L2.2,7
	C2.1,7.3,2,7.6,1.9,7.9L1.4,8C1.2,8,1,8.2,1,8.5l0.1,0.8c0,0.2,0.2,0.4,0.5,0.5l0.6,0c0.1,0.3,0.2,0.5,0.4,0.8L2.2,11
	c-0.1,0.2-0.1,0.5,0.1,0.7l0.6,0.5c0.2,0.2,0.5,0.2,0.7,0L4,11.8C4.2,11.9,4.5,12,4.8,12l0.1,0.6C5,12.8,5.2,13,5.4,13l0.8-0.1
	c0.2,0,0.4-0.2,0.5-0.5l0-0.5c0.3-0.1,0.6-0.2,0.8-0.4L8,11.8c0.2,0.1,0.5,0.1,0.7-0.1l0.5-0.6c0.2-0.2,0.2-0.5,0-0.7L8.8,10
	C9,9.7,9.1,9.4,9.1,9.1L9.6,9C9.8,9,10,8.8,10,8.5L9.9,7.7c0-0.2-0.2-0.4-0.5-0.5L9,7.2C8.9,6.9,8.7,6.7,8.5,6.4L8.8,6
	C9,5.8,8.9,5.5,8.7,5.4z M5.7,10.1C4.8,10.1,4,9.5,3.9,8.6C3.8,7.7,4.5,6.9,5.4,6.9C6.3,6.8,7,7.5,7.1,8.3C7.2,9.2,6.5,10,5.7,10.1z
	"/>
</svg>
